svg/link_edit.svg

<svg xmlns="http://www.w3.org/2000/svg" viewBox="0 0 24 24"><path d="M13 22v-2.04l6.13-6.13 2.04 2.05L15.04 22zm8.53-9.85 1.32 1.32c.2.2.2.53 0 .72l-.98.98-2.04-2.04.98-.98c.19-.2.52-.2.72 0m-.99-3.69c.19.19.36.4.52.62l-1.38 1.37C19.15 9.5 18.15 8.9 17 8.9h-4V7h4c1.33 0 2.6.53 3.54 1.46M3.9 12c0-1.71 1.39-3.1 3.1-3.1h4V7H7c-1.33 0-2.6.53-3.54 1.46C2.53 9.4 2 10.67 2 12s.53 2.6 1.46 3.54C4.4 16.47 5.67 17 7 17h4v-1.9H7c-1.71 0-3.1-1.39-3.1-3.1M8 13h8v-2H8z"/></svg>

<svg xmlns="http://www.w3.org/2000/svg" id="mdi-link-edit" viewBox="0 0 24 24"><path d="M13 22V19.96L19.13 13.83L21.17 15.88L15.04 22H13M21.53 12.15L22.85 13.47C23.05 13.67 23.05 14 22.85 14.19L21.87 15.17L19.83 13.13L20.81 12.15C21 11.95 21.33 11.95 21.53 12.15M20.54 8.46C20.73 8.65 20.9 8.86 21.06 9.08L19.68 10.45C19.15 9.5 18.15 8.9 17 8.9H13V7H17C18.33 7 19.6 7.53 20.54 8.46M3.9 12C3.9 10.29 5.29 8.9 7 8.9H11V7H7C5.67 7 4.4 7.53 3.46 8.46C2.53 9.4 2 10.67 2 12C2 13.33 2.53 14.6 3.46 15.54C4.4 16.47 5.67 17 7 17H11V15.1H7C5.29 15.1 3.9 13.71 3.9 12M8 13H16V11H8V13Z" /></svg>
